!!!COM: Bach, Johann Sebastian
!!!OPR: Joh. Seb. Bachs vierstimmige Choralges‰nge
!!!XEN: Four-part Chorales
!!!OTL: 87. Herzlich lieb hab' ich dich, o Herr
!!!SCT: BWV 340
!!!SCA: Thematisch-systematisches Verzeichnis der musikalischen Werke Johann Sebastian Bach: Bach-Werke-Verzeichnis (Schmieder)
!!!YOR: Bach Gesellschaft Edition xxxix
!!!ENC: Steven Rasmussen
!!!CDT: 1685/3//-1750/7/28/
!!!OCY: Deutschland
!!!YEC: Copyright (c) 1994, 2000 Center for Computer Assisted Research in the Humanities
!!!YEM: Rights to all derivative editions reserved
!!!YEN: United States of America
**kern	**silbe	**kern	**kern	**kern
*I:[SOPRANO]	*I:[SOPRANO]	*I:[ALTO]	*I:[TENORE]	*I:[BASSO]
*>[A,A,B]	*	*>[A,A,B]	*>[A,A,B]	*>[A,A,B]
*>A	*	*>A	*>A	*>A
*clefG2	*	*clefG2	*clefGv2	*clefF4
*k[]	*	*k[]	*k[]	*k[]
*C:	*	*C:	*C:	*C:
*M4/4	*	*M4/4	*M4/4	*M4/4
4cc	Herz-Die	4g	4e	4C
=1	=1	=1	=1	=1
4b	-lichganz'	8gL	4d	4G
.	.	8fJ	.	.
4a	liebWelt	4e	8dL	4A
.	.	.	8cJ	.
8gL	hab'nicht	4e	4B	8EL
8fJ	.	.	.	8DJ
4e	icher-	8eL	8cL	4C
.	.	8dJ	8BJ	.
=2	=2	=2	=2	=2
4a	dich,-freu-	4c	8AL	8FL
.	.	.	8BJ	8GJ
4a	o-et	4f	4c	8AL
.	.	.	.	8BJ
4g;	Herr,mich,	4e;	4c;	4c;
4cc	ichnach	8eL	8cL	4A
.	.	8fJ	8dJ	.
=3	=3	=3	=3	=3
4b	bitt'Himm'l	4g	8eL	4E
.	.	.	8dJ	.
4a	wollstund	8fL	4c	4F
.	.	8eJ	.	.
8gL	seinErd'	4d	4d	4BB
8fJ	.	.	.	.
4e	vonnicht	8cL	4G	8CL
.	.	8dJ	.	8BBJ
=4	=4	=4	=4	=4
4a	mirfra-	8eL	8cL	8AAL
.	.	8d#J	8BJ	8BBJ
4a	nicht-ge	8eL	8AL	8C#L
.	.	8f#J	8cJ	8D#J
4g;	fernich,	(8f#L	4B;	4E;
.	.	8e;J)	.	.
4g	mitwenn	4e	8cL	4Cn
.	.	.	8BJ	.
=5	=5	=5	=5	=5
4a	dei-ich	8dL	4A	4F
.	.	8cJ	.	.
4b	-nernur,	4f	4d	8EL
.	.	.	.	8DJ
8ccL	HuldHerr,	4e	8cL	4.A
8ddJ	.	.	8BJ	.
4ee	unddich	4a	4c	.
.	.	.	.	8G
=6	=6	=6	=6	=6
2dd	Gna-ha-	4a	4c	8FL
.	.	.	.	8DJ
.	.	8gL	4B	4G
.	.	8fJ	.	.
4cc;	-de.-be.	4e;	4G;	4C;
=:|!	=:|!	=:|!	=:|!	=:|!
*>B	*	*>B	*>B	*>B
4cc	Und	4g	4e	8cL
.	.	.	.	8BJ
=7	=7	=7	=7	=7
4cc	wenn	4a	8eL	4.A
.	.	.	8cJ	.
4dd	mir	4b	8fL	.
.	.	.	8eJ	8G#
4cc	gleich	4a	4.e	8AL
.	.	.	.	8BJ
8aL	mein	4e	.	8cL
8bJ	.	.	8d	8BJ
=8	=8	=8	=8	=8
4.cc	Herz	4e	8cL	8AL
.	.	.	8BJ	8GJ
.	.	4d	4A	8F#L
8dd	zer-	.	.	8DJ
4b;	-bricht,	4d;	4G;	4G;
4b	so	4g	4d	8GL
.	.	.	.	8FnJ
=9	=9	=9	=9	=9
4cc	bist	4g	4e	8EL
.	.	.	.	8DJ
4dd	doch	4g	4f	8CL
.	.	.	.	8BBJ
8ccL	du	4g	4e	4C
8bJ	.	.	.	.
8aL	mein'	4f	8AL	4D
8bJ	.	.	8G#J	.
=10	=10	=10	=10	=10
4.cc	Zu-	4.e	8AL	8AAL
.	.	.	8EJ	8BBJ
.	.	.	4A	8CL
8dd	-ver-	8f#	.	8AAJ
4b;	-sicht,	4g#;	4B;	4E;
4ee	mein	8aL	4A	4C#
.	.	8gnJ	.	.
=11	=11	=11	=11	=11
8ffL	Heil	4f	8dL	4D
8eeJ	.	.	8cJ	.
4dd	und	4g	4B	8GL
.	.	.	.	8FJ
8eeL	mei-	8gL	4B	4E
8ddJ	.	8fJ	.	.
4cc	-nes	4e	4c	8AL
.	.	.	.	8GJ
=12	=12	=12	=12	=12
4cc	Her-	4a	4d	8FL
.	.	.	.	8DJ
4b	-zens	4g	8eL	4G
.	.	.	8fJ	.
4cc;	Trost,	4g;	4e;	4C;
4b	der	4g	4d	4G
=13	=13	=13	=13	=13
4cc	mich	4a	4d	8GL
.	.	.	.	8F#J
4b	durch	8aL	8dL	8GL
.	.	8gJ	8eJ	8EJ
8aL	sein	8gL	8eL	8CL
8bJ	.	8f#J	8dJ	8DJ
4g	Blut	8f#L	8BL	8EL
.	.	8eJ	8cJ	8CJ
=14	=14	=14	=14	=14
8gL	hat	4e	4c	4AA
8aJ	.	.	.	.
4f#	er-	4d	8AL	4D
.	.	.	16BL	.
.	.	.	16cJJ	.
4g;	-l√∂st,	4d;	4B;	4GG;
4ee	Herr	4c	8GL	4C
.	.	.	8AJ	.
=15	=15	=15	=15	=15
4dd	Je-	8dL	4B	8GL
.	.	8eJ	.	8G#J
4cc	-su	8eL	8AL	4A
.	.	8d#J	8F#J	.
4b;	Christ!	4e;	4G#;	4E;
4ee	Herr	8eL	8cL	4AA
.	.	8dnJ	8BJ	.
=16	=16	=16	=16	=16
8ffL	Je-	8cL	8AL	4A
8eeJ	.	8eJ	8cJ	.
4dd	-su	8g#L	8dL	8BL
.	.	8aJ	8fJ	8AJ
8eeL	Christ,	4b	4B	4G#
8ddJ	.	.	.	.
8ccL	mein	4e	4c	8AL
8bJ	.	.	.	8GnJ
=17	=17	=17	=17	=17
8aL	Gott	8eL	8cL	4F#
8ddJ	.	8dJ	8AJ	.
4b	und	4e	8BL	8G#L
.	.	.	8G#J	8EJ
4cc;	Herr!	4e;	4A;	4A;
4cc	in	8ccL	4Gn	4E
.	.	8b-J	.	.
=18	=18	=18	=18	=18
4cc	Schan-	8aL	8cL	8FL
.	.	8gJ	8B-J	8GJ
4cc	-den	8fL	4A	4A
.	.	8eJ	.	.
4dd	lass	4d	8AL	4BB
.	.	.	8GJ	.
4cc	mich	8eL	8GL	8EL
.	.	8gJ	8eJ	8CJ
=19	=19	=19	=19	=19
4cc	nim-	4.g	8dL	4G
.	.	.	8cJ	.
4b	-mer-	.	4d	4GG
.	.	8g	.	.
4cc;	-mehr.	4g;	4e;	4C;
==|!	==|!	==|!	==|!	==|!
*-	*-	*-	*-	*-
!!!RWG: Key is interpreted using the Humdrum key tool.
!!!END: 1994/06/10
!!!EMD: Converted from MuseData to Humdrum Dec 19, 2000, by Andreas Kornstaedt using muse2kern.
!!!EED: Craig Stuart Sapp
!!!EEV: 2024/03/31
!!!ONB: Some non-unicode characters
